img/icons/svg/example.svg

<svg xmlns="http://www.w3.org/2000/svg" width="29" height="29" fill="none">
  <path d="M28.2394 22.372L22.3697 18.4575C21.6248 17.9648 20.6263 18.1269 20.0756 18.8301L18.3658 21.0285C18.1461 21.3182 17.7467 21.4022 17.4288 21.2257L17.1036 21.0464C16.0254 20.4587 14.6839 19.7271 11.981 17.0232 9.27812 14.3194 8.54502 12.9768 7.95735 11.9007L7.77901 11.5754C7.6 11.2576 7.68245 10.8565 7.9723 10.635L10.1692 8.92571C10.8721 8.37496 11.0345 7.37676 10.5423 6.63165L6.62785.761952C6.12342.00319298 5.11141-.224582 4.3305.244843L1.87601 1.71926C1.10479 2.17266.538977 2.90695.297214 3.76827-.586645 6.98872.0782735 12.5467 8.26571 20.7351 14.7786 27.2475 19.6272 28.9989 22.9598 28.9989 23.7268 29.0022 24.4907 28.9024 25.2311 28.7022 26.0926 28.4607 26.827 27.8948 27.2801 27.1234L28.756 24.6704C29.2261 23.8893 28.9985 22.8767 28.2394 22.372zM27.9233 24.1745L26.4508 26.629C26.1255 27.1858 25.5973 27.5952 24.9769 27.7714 22.0038 28.5877 16.8098 27.9116 8.94949 20.0513 1.08922 12.1911.413197 6.99744 1.22944 4.02397 1.4059 3.40283 1.81581 2.87394 2.37329 2.54808L4.82779 1.07558C5.16662.871705 5.60586.970528 5.82475 1.29979L7.95112 4.4922 9.73582 7.16898C9.94955 7.49218 9.87933 7.92536 9.57442 8.16452L7.37703 9.87379C6.70832 10.3851 6.51736 11.3103 6.92907 12.0446L7.10356 12.3616C7.72119 13.4944 8.48907 14.9036 11.2925 17.7065 14.0959 20.5094 15.5046 21.2774 16.6369 21.8949L16.9543 22.0699C17.6886 22.4815 18.6138 22.2906 19.1252 21.6219L20.8344 19.4245C21.0737 19.1198 21.5067 19.0496 21.83 19.2631L27.6992 23.1776C28.0287 23.3963 28.1275 23.8357 27.9233 24.1745zM16.4328 4.83581C20.968 4.84085 24.6432 8.51611 24.6483 13.0513 24.6483 13.3182 24.8646 13.5345 25.1315 13.5345 25.3984 13.5345 25.6148 13.3182 25.6148 13.0513 25.6092 7.98252 21.5016 3.87487 16.4328 3.86932 16.1659 3.86932 15.9496 4.08566 15.9496 4.35257 15.9496 4.61947 16.1659 4.83581 16.4328 4.83581z" fill="#000"/>
  <path d="M16.4328 7.73541C19.3673 7.73886 21.7453 10.1168 21.7487 13.0513C21.7487 13.3182 21.9651 13.5345 22.232 13.5345C22.4989 13.5345 22.7152 13.3182 22.7152 13.0513C22.7112 9.58326 19.9008 6.77289 16.4328 6.76892C16.1659 6.76892 15.9496 6.98526 15.9496 7.25216C15.9496 7.51907 16.1659 7.73541 16.4328 7.73541Z" fill="#000"/>
  <path d="M16.4328 10.635C17.7666 10.6366 18.8475 11.7174 18.8492 13.0513C18.8492 13.3182 19.0655 13.5346 19.3324 13.5346C19.5993 13.5346 19.8156 13.3182 19.8156 13.0513C19.8135 11.1839 18.3002 9.67058 16.4328 9.66849C16.1659 9.66849 15.9496 9.88482 15.9496 10.1517C15.9496 10.4186 16.1659 10.635 16.4328 10.635Z" fill="#000"/>
</svg>

<svg xmlns="http://www.w3.org/2000/svg" width="29" height="29" fill="none"><path d="M28.24 22.372l-5.87-3.915a1.713 1.713 0 00-2.294.373l-1.71 2.199a.73.73 0 01-.937.197l-.325-.18c-1.079-.587-2.42-1.319-5.123-4.023-2.703-2.704-3.436-4.046-4.024-5.122l-.178-.326a.732.732 0 01.193-.94l2.197-1.71c.703-.55.865-1.548.373-2.293L6.628.762A1.704 1.704 0 004.33.245L1.876 1.719A3.462 3.462 0 00.297 3.77c-.884 3.22-.219 8.778 7.969 16.966C14.779 27.247 19.627 29 22.96 29a8.56 8.56 0 002.271-.297 3.46 3.46 0 002.05-1.579l1.475-2.453a1.704 1.704 0 00-.517-2.298zm-.317 1.802l-1.472 2.455a2.497 2.497 0 01-1.474 1.142c-2.973.817-8.167.14-16.028-7.72C1.09 12.191.413 6.997 1.23 4.024a2.501 2.501 0 011.144-1.476l2.455-1.472a.74.74 0 01.997.224L7.95 4.492 9.736 7.17a.744.744 0 01-.162.996L7.377 9.874a1.691 1.691 0 00-.448 2.17l.175.318c.617 1.132 1.385 2.542 4.189 5.344 2.803 2.803 4.212 3.571 5.344 4.189l.317.175c.735.412 1.66.22 2.171-.448l1.71-2.198a.744.744 0 01.995-.16l5.87 3.914a.737.737 0 01.223.996zM16.433 4.836a8.225 8.225 0 018.215 8.215.483.483 0 10.967 0 9.192 9.192 0 00-9.182-9.182.483.483 0 100 .967z" fill="#000"/><path d="M16.433 7.735a5.322 5.322 0 015.316 5.316.483.483 0 00.966 0 6.29 6.29 0 00-6.282-6.282.483.483 0 100 .966z" fill="#000"/><path d="M16.433 10.635a2.42 2.42 0 012.416 2.416.483.483 0 10.967 0 3.387 3.387 0 00-3.383-3.383.483.483 0 100 .967z" fill="#000"/></svg>
